public/search.svg

<svg width="31" height="30" viewBox="0 0 31 30" fill="none" xmlns="http://www.w3.org/2000/svg">
<rect x="0.5" y="0.5" width="30" height="29" rx="3.5" fill="white" stroke="#B8B8B8"/>
<path d="M22.803 23.8637C23.0959 24.1566 23.5708 24.1566 23.8637 23.8637C24.1566 23.5708 24.1566 23.0959 23.8637 22.803L22.803 23.8637ZM19.4864 19.4864L20.0167 18.956C19.867 18.8063 19.6611 18.7269 19.4497 18.7373C19.2382 18.7476 19.041 18.8469 18.9067 19.0105L19.4864 19.4864ZM20.6275 15.8508C20.5451 16.2567 20.8073 16.6526 21.2133 16.735C21.6192 16.8174 22.0151 16.5551 22.0975 16.1492L20.6275 15.8508ZM23.8637 22.803L20.0167 18.956L18.9561 20.0167L22.803 23.8637L23.8637 22.803ZM14.625 20.75C11.2423 20.75 8.5 18.0077 8.5 14.625H7C7 18.8362 10.4138 22.25 14.625 22.25V20.75ZM8.5 14.625C8.5 11.2423 11.2423 8.5 14.625 8.5V7C10.4138 7 7 10.4138 7 14.625H8.5ZM14.625 8.5C18.0077 8.5 20.75 11.2423 20.75 14.625H22.25C22.25 10.4138 18.8362 7 14.625 7V8.5ZM20.75 14.625C20.75 15.0455 20.7077 15.4554 20.6275 15.8508L22.0975 16.1492C22.1976 15.6561 22.25 15.1463 22.25 14.625H20.75ZM14.625 22.25C16.3934 22.25 17.7435 21.6935 18.6532 21.1311C19.1068 20.8507 19.4513 20.5687 19.6859 20.3528C19.8033 20.2447 19.8937 20.1527 19.957 20.085C19.9887 20.0512 20.0136 20.0233 20.0318 20.0025C20.0408 19.9921 20.0482 19.9835 20.054 19.9768C20.0568 19.9734 20.0593 19.9705 20.0613 19.968C20.0623 19.9668 20.0632 19.9657 20.064 19.9648C20.0644 19.9643 20.0648 19.9638 20.0651 19.9634C20.0653 19.9632 20.0655 19.9629 20.0656 19.9628C20.0659 19.9625 20.0661 19.9622 19.4864 19.4864C18.9067 19.0105 18.9069 19.0102 18.9071 19.01C18.9072 19.0099 18.9074 19.0096 18.9075 19.0095C18.9078 19.0092 18.908 19.0089 18.9082 19.0087C18.9086 19.0082 18.9089 19.0078 18.9091 19.0076C18.9095 19.0071 18.9095 19.0071 18.9092 19.0075C18.9084 19.0084 18.9062 19.011 18.9024 19.0154C18.8947 19.0241 18.881 19.0395 18.8612 19.0607C18.8215 19.1032 18.7577 19.1685 18.6701 19.2492C18.4944 19.4108 18.2251 19.6323 17.8644 19.8552C17.1455 20.2997 16.0649 20.75 14.625 20.75V22.25Z" fill="black"/>
</svg>

<svg width="31" height="30" fill="none" xmlns="http://www.w3.org/2000/svg"><rect x=".5" y=".5" width="30" height="29" rx="3.5" fill="#fff" stroke="#B8B8B8"/><path d="M22.803 23.864a.75.75 0 0 0 1.06-1.061l-1.06 1.06Zm-3.317-4.378.53-.53a.75.75 0 0 0-1.11.055l.58.475Zm1.142-3.635a.75.75 0 1 0 1.47.298l-1.47-.298Zm3.236 6.952-3.847-3.847-1.06 1.06 3.846 3.848 1.06-1.061Zm-9.239-2.053A6.125 6.125 0 0 1 8.5 14.625H7a7.625 7.625 0 0 0 7.625 7.625v-1.5ZM8.5 14.625A6.125 6.125 0 0 1 14.625 8.5V7A7.625 7.625 0 0 0 7 14.625h1.5ZM14.625 8.5a6.125 6.125 0 0 1 6.125 6.125h1.5A7.625 7.625 0 0 0 14.625 7v1.5Zm6.125 6.125c0 .42-.042.83-.122 1.226l1.47.298c.1-.493.152-1.003.152-1.524h-1.5Zm-6.125 7.625c1.768 0 3.119-.556 4.028-1.119a6.85 6.85 0 0 0 1.033-.778 5.128 5.128 0 0 0 .346-.35l.022-.026.007-.009.003-.003.001-.002-.579-.477-.579-.476.001-.001.001-.001-.007.007a3.622 3.622 0 0 1-.232.234 5.355 5.355 0 0 1-.806.606c-.719.445-1.8.895-3.239.895v1.5Z" fill="#000"/></svg>
